X: 5
T: The Humours Of Tullycrine
R: hornpipe
M: 4/4
L: 1/8
K: Edor
G2EF ~G3A|Be{a/}ed AB{c/}AF|~G3E~F2DE|FAAB {c/}AFDF|
EDEF ~G3A|Be{a/}ed AB{c/}AF|Gz AB {c/}AFDE|FE{A/}ED E2 BA|
~G2EF ~G3A|Be{a/}ed AB{c/}AF|~G3E~F2DE|FzAB{c/}AFDF|
DE{A/}ED ~G3 A|Bzed AB{c/}AF|~G3 B {c/}AFDE|FE{A/}ED ~E2 FA|
Be~e2 {a/}edBA|Bz{a/}ed {a/}edBA|Bd{a/}de dB~A2|(3Bcd ce dB{c/}AF|
EDEF ~G3A|Bz{a/}ed AB {c/}AF|~G3E {c/}AFDF|GE{A/}ED ~E2 FA |
Bz{a/}ed {a/}edBA|BzJ{a/}gf{a/}ed BA|Bdde dB~A2|(3Bcd ce dB{c/}AF|
EDEF ~G3A|Bz{a/}ed AB{c/}AF|~G2JFG {c/}AFDE|FE{A}ED E2|


Tune 980	Setting 14179

